X: 22
T: the Strolling Players
R: jig
M: 6/8
L: 1/8
Z: 2011 John Chambers <jc:trillian.mit.edu>
B: William Randall eds "Twenty Four Country Dances", London 1771, p.13
K: D
|:\
D2A F2A | DFA GFE | d2f e2g | fed cBA |\
Bcd def | ^GFE e2d | cBA BA^G | A3 A,3 :|
|:\
AcA a2f | AcA g2f | e^de Bc=d | c3 A3 |\
Bge cag | fed cBA | Bcd edc | d3 D3 :|
% - - - - - - - - - - - - - - - - - - - - - - - - -
%%begintext align
%% Figure down on your own sides : and up
%% again lead thro the Bottom cst up
%% Right and Left at top
%%endtext
% - - - - - - - - - - - - - - - - - - - - - - - - -

%%sep 1 1 500
%%sep 1 1 500
